fs/skip_forward_30_20_filled.svg

<svg viewBox="0 0 20 20" fill="none" xmlns="http://www.w3.org/2000/svg" height="1em" width="1em">
  <path d="M15.7324 5.62788V3.75C15.7324 3.33579 16.0682 3 16.4824 3C16.8966 3 17.2324 3.33579 17.2324 3.75V7.25C17.2324 7.66421 16.8966 8 16.4824 8H12.4824C12.0682 8 11.7324 7.66421 11.7324 7.25C11.7324 6.83579 12.0682 6.5 12.4824 6.5H14.5066C13.3117 5.11091 11.6039 4.25 9.73229 4.25C7.33305 4.25 5.20293 5.66478 4.07739 7.79336C3.93324 8.06598 3.65733 8.25 3.34895 8.25C2.81119 8.25 2.43754 7.71676 2.67987 7.2367C4.02136 4.5792 6.65628 2.75 9.73229 2.75C12.1381 2.75 14.274 3.86891 15.7324 5.62788ZM4.97104 10.7188L4.97014 10.7197C4.67724 11.0126 4.67724 11.4874 4.97014 11.7803C5.26121 12.0714 5.73201 12.0732 6.02532 11.7858L6.03488 11.777C6.04661 11.7665 6.0683 11.7478 6.09942 11.7234C6.16199 11.6745 6.26049 11.6045 6.39086 11.5334C6.65183 11.3911 7.02884 11.25 7.50047 11.25C8.05421 11.25 8.37457 11.4 8.54074 11.5408C8.703 11.6784 8.75927 11.8377 8.7556 11.9808C8.74943 12.2217 8.50279 12.75 7.50047 12.75C7.08625 12.75 6.75047 13.0858 6.75047 13.5C6.75047 13.9142 7.08625 14.25 7.50047 14.25C8.50279 14.25 8.74943 14.7783 8.7556 15.0192C8.75927 15.1623 8.703 15.3216 8.54074 15.4592C8.37457 15.6 8.05421 15.75 7.50047 15.75C7.02884 15.75 6.65183 15.6089 6.39086 15.4666C6.26049 15.3955 6.16199 15.3255 6.09942 15.2766C6.0683 15.2522 6.04661 15.2335 6.03488 15.223L6.02532 15.2142C5.73201 14.9268 5.26121 14.9286 4.97014 15.2197C4.67724 15.5126 4.67724 15.9874 4.97014 16.2803C4.68981 16 4.97104 16.2812 4.97104 16.2812L4.97201 16.2822L4.97418 16.2843L4.97941 16.2895L4.99339 16.3029C5.00427 16.3132 5.01829 16.3262 5.03539 16.3415C5.06955 16.372 5.11623 16.4119 5.17495 16.4578C5.29207 16.5495 5.45919 16.667 5.67258 16.7834C6.09911 17.0161 6.7221 17.25 7.50047 17.25C8.32172 17.25 9.01341 17.025 9.51074 16.6033C10.012 16.1784 10.2706 15.5877 10.2551 14.9808C10.2404 14.4054 9.99673 13.8901 9.58434 13.5C9.99673 13.11 10.2404 12.5946 10.2551 12.0192C10.2706 11.4123 10.012 10.8216 9.51074 10.3967C9.01341 9.97505 8.32172 9.75 7.50047 9.75C6.7221 9.75 6.09911 9.98393 5.67258 10.2166C5.45919 10.333 5.29207 10.4505 5.17495 10.5422C5.11623 10.5881 5.06955 10.628 5.03539 10.6585C5.01829 10.6738 5.00427 10.6868 4.99339 10.6971L4.97941 10.7105L4.97418 10.7157L4.97201 10.7178L4.97104 10.7188ZM16.0005 13.5C16.0005 15.5711 15.3755 17.25 13.5005 17.25C11.6255 17.25 11.0005 15.5711 11.0005 13.5C11.0005 11.4289 11.6255 9.75 13.5005 9.75C15.3755 9.75 16.0005 11.4289 16.0005 13.5ZM14.5005 13.5C14.5005 12.5693 14.3522 11.9417 14.1536 11.5967C14.0662 11.4448 13.985 11.3749 13.921 11.3373C13.8591 11.3008 13.7383 11.25 13.5005 11.25C13.2626 11.25 13.1418 11.3008 13.0799 11.3373C13.016 11.3749 12.9348 11.4448 12.8474 11.5967C12.6488 11.9417 12.5005 12.5693 12.5005 13.5C12.5005 14.4307 12.6488 15.0583 12.8474 15.4033C12.9348 15.5552 13.016 15.6251 13.0799 15.6627C13.1418 15.6992 13.2626 15.75 13.5005 15.75C13.7383 15.75 13.8591 15.6992 13.921 15.6627C13.985 15.6251 14.0662 15.5552 14.1536 15.4033C14.3522 15.0583 14.5005 14.4307 14.5005 13.5Z" fill="#212121"/>
</svg>

<svg viewBox="0 0 20 20" fill="none" xmlns="http://www.w3.org/2000/svg" height="1em" width="1em">
  <path d="M15.732 5.628V3.75a.75.75 0 0 1 1.5 0v3.5a.75.75 0 0 1-.75.75h-4a.75.75 0 0 1 0-1.5h2.025c-1.195-1.39-2.903-2.25-4.775-2.25-2.399 0-4.53 1.415-5.655 3.543a.834.834 0 0 1-.728.457c-.538 0-.911-.533-.67-1.013C4.022 4.579 6.657 2.75 9.733 2.75c2.406 0 4.542 1.119 6 2.878Zm-10.761 5.09v.002a.75.75 0 0 0 1.054 1.066l.01-.009c.012-.01.033-.03.064-.054A2.31 2.31 0 0 1 7.5 11.25c.554 0 .875.15 1.04.29a.55.55 0 0 1 .216.44c-.007.242-.253.77-1.256.77a.75.75 0 0 0 0 1.5c1.003 0 1.25.528 1.256.77a.55.55 0 0 1-.215.44c-.166.14-.487.29-1.04.29a2.31 2.31 0 0 1-1.402-.473 1.322 1.322 0 0 1-.064-.054l-.01-.009A.75.75 0 0 0 4.97 16.28l.001.001.001.001.002.002.005.006.014.013a2.034 2.034 0 0 0 .182.155 3.808 3.808 0 0 0 2.326.792c.82 0 1.512-.225 2.01-.647.501-.425.76-1.015.744-1.622a2.09 2.09 0 0 0-.67-1.481 2.09 2.09 0 0 0 .67-1.48 2.048 2.048 0 0 0-.744-1.623c-.498-.422-1.19-.647-2.01-.647a3.808 3.808 0 0 0-2.326.792 2.787 2.787 0 0 0-.182.155l-.014.014-.005.005-.002.002h-.001Zm11.03 2.782c0 2.071-.626 3.75-2.5 3.75-1.875 0-2.5-1.679-2.5-3.75 0-2.071.625-3.75 2.5-3.75S16 11.429 16 13.5Zm-1.5 0c0-.93-.149-1.558-.347-1.903a.667.667 0 0 0-.233-.26c-.062-.036-.183-.087-.42-.087-.238 0-.36.05-.421.087a.668.668 0 0 0-.233.26c-.198.345-.346.972-.346 1.903 0 .93.148 1.558.346 1.903a.668.668 0 0 0 .233.26c.062.036.183.087.42.087.238 0 .36-.05.421-.087a.667.667 0 0 0 .233-.26c.198-.345.347-.972.347-1.903Z" fill="#212121"/>
</svg>
